X:144150
T:The 51st Highland Division at Wadi Akarit
C:
H: 
B: http://trillian.mit.edu/~jc/music/abc/mirror/corneymusers/51st_Highland_Division_at_Wadi_Akarit_1.abc
O:Kevin Fraser
Z:Kevin Fraser
Q:1/4=90
K:HP
M:4/4
L:1/8
R:March
U: R = ///
U: r = //
U: V = !accent!
V:M gstem=up stem=down name="Melody"
V:H gstem=up stem=down name="Harmony"
V:C gstem=up stem=down name="C-Harmony"
V:S gstem=up stem=down dyn=up stafflines=1 clef=perc middle=G name="Snare" sname="Snare"" sname="Snare"
V:B gstem=up stem=down clef=none dyn=up name="Bass"
V:T gstem=up stem=down clef=none dyn=up name="Tenor"
V:BB gstem=up stem=down name="Brass Bass" sname="ABCD-C" transpose=-1  octave=-1 clef=bass
V:BC gstem=up stem=down name="Brass Chord" sname="ABCD-D" transpose=-1
V:BD gstem=up stem=down name="Brass Chord 2" sname="ABCD-B" transpose=-1
V:P gstem=up stem=down name="Piano" octave=-1
I:MIDI=program 110
V:M gstem=up stem=down name="Melody"
%%MIDI program 109 #bagpipes
%%MIDI vol 100
V:M
|: e2| {g}fa {Gdc}d3/2c/2| {g}B{Gdc}d {g}A3/2{d}B/2|  {g}A{Gdc}d {g}fa| {fg}f2 {g}ea3/4g/4|
{g}fa {Gdc}d3/2c/2| {g}B{Gdc}d {g}A3/2{d}B/2|  {g}A{d}c{gf}gc| {gef}e2{Gdc}d [1a3/4g/4][2{g}c3/4B/4] :| 
|:{g}A{Gdc}d {gdc}df|{ag}a3/2A/2 {gcd}ce|  {gf}g3/2e/2 {gcd}c{e}A| {gf}g3/2e/2 {gcd}ce|
{g}A{Gdc}d {gdc}df|{ag}a3/2A/2 {gcd}ce|  {g}A{d}c{gf}gc| {gef}e2{Gdc}d [1 {g}c3/4B/4][2 {g}f3/4g/4] :| 
|:{ag}a3/2g/2 {fg}fd| {gf}g3/2e/2 {gcd}c{e}A|  {gf}g3/2e/2 {gcd}ce| {gef}e3/2d/2 {gcd}c{e}A|
{ag}a3/2g/2 {fg}fd| {gf}g3/2e/2 {gcd}c{e}A| {g}A{d}c{gf}gc| {gef}e2{Gdc}d [1 {g}f3/4g/4][2  {g}c3/4B/4]:| 
|: {g}A{Gdc}d {g}d3/4c/4 {g}d3/4f/4| {g}A{Gdc}d {g}f{ag}a|  A{d}c {g}c/4e3/4{g}c/4e3/4| {g}A{d}c {gef}ef|
{g}A{Gdc}d {g}d3/4c/4 {g}d3/4f/4| {g}A{Gdc}d {g}f{ag}a| A{d}c {gf}gc|{gef}e2 {Gdc}d[1{g}c3/4B/4][2  x]:|  


